profiles/CassArt 300 Sm.cube
TITLE "cyanoneg"
LUT_3D_SIZE 4
DOMAIN_MIN 0.0 0.0 0.0
DOMAIN_MAX 1.0 1.0 1.0
0.000000 0.000000 0.000000
0.649018 0.000000 0.000000
0.782535 0.000000 0.000000
1.000000 0.000000 0.000000
0.000000 0.649018 0.000000
0.649018 0.649018 0.000000
0.782535 0.649018 0.000000
1.000000 0.649018 0.000000
0.000000 0.782535 0.000000
0.649018 0.782535 0.000000
0.782535 0.782535 0.000000
1.000000 0.782535 0.000000
0.000000 1.000000 0.000000
0.649018 1.000000 0.000000
0.782535 1.000000 0.000000
1.000000 1.000000 0.000000
0.000000 0.000000 0.649018
0.649018 0.000000 0.649018
0.782535 0.000000 0.649018
1.000000 0.000000 0.649018
0.000000 0.649018 0.649018
0.649018 0.649018 0.649018
0.782535 0.649018 0.649018
1.000000 0.649018 0.649018
0.000000 0.782535 0.649018
0.649018 0.782535 0.649018
0.782535 0.782535 0.649018
1.000000 0.782535 0.649018
0.000000 1.000000 0.649018
0.649018 1.000000 0.649018
0.782535 1.000000 0.649018
1.000000 1.000000 0.649018
0.000000 0.000000 0.782535
0.649018 0.000000 0.782535
0.782535 0.000000 0.782535
1.000000 0.000000 0.782535
0.000000 0.649018 0.782535
0.649018 0.649018 0.782535
0.782535 0.649018 0.782535
1.000000 0.649018 0.782535
0.000000 0.782535 0.782535
0.649018 0.782535 0.782535
0.782535 0.782535 0.782535
1.000000 0.782535 0.782535
0.000000 1.000000 0.782535
0.649018 1.000000 0.782535
0.782535 1.000000 0.782535
1.000000 1.000000 0.782535
0.000000 0.000000 1.000000
0.649018 0.000000 1.000000
0.782535 0.000000 1.000000
1.000000 0.000000 1.000000
0.000000 0.649018 1.000000
0.649018 0.649018 1.000000
0.782535 0.649018 1.000000
1.000000 0.649018 1.000000
0.000000 0.782535 1.000000
0.649018 0.782535 1.000000
0.782535 0.782535 1.000000
1.000000 0.782535 1.000000
0.000000 1.000000 1.000000
0.649018 1.000000 1.000000
0.782535 1.000000 1.000000
1.000000 1.000000 1.000000
