profiles/CassArt 300 Sm.cube
TITLE "cyanoneg"
LUT_3D_SIZE 64
DOMAIN_MIN 0.0 0.0 0.0
DOMAIN_MAX 1.0 1.0 1.0
0.000000 0.000000 0.000000
0.097990 0.000000 0.000000
0.183752 0.000000 0.000000
0.253678 0.000000 0.000000
0.309113 0.000000 0.000000
0.356051 0.000000 0.000000
0.393176 0.000000 0.000000
0.419756 0.000000 0.000000
0.439669 0.000000 0.000000
0.458293 0.000000 0.000000
0.480586 0.000000 0.000000
0.506121 0.000000 0.000000
0.530202 0.000000 0.000000
0.548523 0.000000 0.000000
0.562729 0.000000 0.000000
0.575170 0.000000 0.000000
0.587398 0.000000 0.000000
0.599077 0.000000 0.000000
0.610403 0.000000 0.000000
0.622267 0.000000 0.000000
0.635457 0.000000 0.000000
0.649018 0.000000 0.000000
0.661373 0.000000 0.000000
0.672150 0.000000 0.000000
0.682052 0.000000 0.000000
0.690812 0.000000 0.000000
0.698137 0.000000 0.000000
0.704412 0.000000 0.000000
0.710681 0.000000 0.000000
0.717954 0.000000 0.000000
0.726075 0.000000 0.000000
0.733747 0.000000 0.000000
0.739860 0.000000 0.000000
0.744969 0.000000 0.000000
0.749545 0.000000 0.000000
0.753859 0.000000 0.000000
0.757797 0.000000 0.000000
0.761560 0.000000 0.000000
0.765473 0.000000 0.000000
0.769517 0.000000 0.000000
0.773655 0.000000 0.000000
0.777965 0.000000 0.000000
0.782535 0.000000 0.000000
0.787290 0.000000 0.000000
0.792074 0.000000 0.000000
0.796730 0.000000 0.000000
0.801365 0.000000 0.000000
0.806264 0.000000 0.000000
0.811709 0.000000 0.000000
0.817650 0.000000 0.000000
0.823730 0.000000 0.000000
0.829675 0.000000 0.000000
0.835616 0.000000 0.000000
0.841544 0.000000 0.000000
0.847358 0.000000 0.000000
0.852856 0.000000 0.000000
0.858599 0.000000 0.000000
0.865159 0.000000 0.000000
0.871890 0.000000 0.000000
0.880184 0.000000 0.000000
0.892381 0.000000 0.000000
0.916897 0.000000 0.000000
0.954380 0.000000 0.000000
1.000000 0.000000 0.000000
0.000000 0.097990 0.000000
0.097990 0.097990 0.000000
0.183752 0.097990 0.000000
0.253678 0.097990 0.000000
0.309113 0.097990 0.000000
0.356051 0.097990 0.000000
0.393176 0.097990 0.000000
0.419756 0.097990 0.000000
0.439669 0.097990 0.000000
0.458293 0.097990 0.000000
0.480586 0.097990 0.000000
0.506121 0.097990 0.000000
0.530202 0.097990 0.000000
0.548523 0.097990 0.000000
0.562729 0.097990 0.000000
0.575170 0.097990 0.000000
0.587398 0.097990 0.000000
0.599077 0.097990 0.000000
0.610403 0.097990 0.000000
0.622267 0.097990 0.000000
0.635457 0.097990 0.000000
0.649018 0.097990 0.000000
0.661373 0.097990 0.000000
0.672150 0.097990 0.000000
0.682052 0.097990 0.000000
0.690812 0.097990 0.000000
0.698137 0.097990 0.000000
0.704412 0.097990 0.000000
0.710681 0.097990 0.000000
0.717954 0.097990 0.000000
0.726075 0.097990 0.000000
0.733747 0.097990 0.000000
0.739860 0.097990 0.000000
0.744969 0.097990 0.000000
0.749545 0.097990 0.000000
0.753859 0.097990 0.000000
0.757797 0.097990 0.000000
0.761560 0.097990 0.000000
0.765473 0.097990 0.000000
0.769517 0.097990 0.000000
0.773655 0.097990 0.000000
0.777965 0.097990 0.000000
0.782535 0.097990 0.000000
0.787290 0.097990 0.000000
0.792074 0.097990 0.000000
0.796730 0.097990 0.000000
0.801365 0.097990 0.000000
0.806264 0.097990 0.000000
0.811709 0.097990 0.000000
0.817650 0.097990 0.000000
0.823730 0.097990 0.000000
0.829675 0.097990 0.000000
0.835616 0.097990 0.000000
0.841544 0.097990 0.000000
0.847358 0.097990 0.000000
0.852856 0.097990 0.000000
0.858599 0.097990 0.000000
0.865159 0.097990 0.000000
0.871890 0.097990 0.000000
0.880184 0.097990 0.000000
0.892381 0.097990 0.000000
0.916897 0.097990 0.000000
0.954380 0.097990 0.000000
1.000000 0.097990 0.000000
0.000000 0.183752 0.000000
0.097990 0.183752 0.000000
0.183752 0.183752 0.000000
0.253678 0.183752 0.000000
0.309113 0.183752 0.000000
0.356051 0.183752 0.000000
0.393176 0.183752 0.000000
0.419756 0.183752 0.000000
0.439669 0.183752 0.000000
0.458293 0.183752 0.000000
0.480586 0.183752 0.000000
0.506121 0.183752 0.000000
0.530202 0.183752 0.000000
0.548523 0.183752 0.000000
0.562729 0.183752 0.000000
0.575170 0.183752 0.000000
0.587398 0.183752 0.000000
0.599077 0.183752 0.000000
0.610403 0.183752 0.000000
0.622267 0.183752 0.000000
0.635457 0.183752 0.000000
0.649018 0.183752 0.000000
0.661373 0.183752 0.000000
0.672150 0.183752 0.000000
0.682052 0.183752 0.000000
0.690812 0.183752 0.000000
0.698137 0.183752 0.000000
0.704412 0.183752 0.000000
0.710681 0.183752 0.000000
0.717954 0.183752 0.000000
0.726075 0.183752 0.000000
0.733747 0.183752 0.000000
0.739860 0.183752 0.000000
0.744969 0.183752 0.000000
0.749545 0.183752 0.000000
0.753859 0.183752 0.000000
0.757797 0.183752 0.000000
0.761560 0.183752 0.000000
0.765473 0.183752 0.000000
0.769517 0.183752 0.000000
0.773655 0.183752 0.000000
0.777965 0.183752 0.000000
0.782535 0.183752 0.000000
0.787290 0.183752 0.000000
0.792074 0.183752 0.000000
0.796730 0.183752 0.000000
0.801365 0.183752 0.000000
0.806264 0.183752 0.000000
0.811709 0.183752 0.000000
0.817650 0.183752 0.000000
0.823730 0.183752 0.000000
0.829675 0.183752 0.000000
0.835616 0.183752 0.000000
0.841544 0.183752 0.000000
0.847358 0.183752 0.000000
0.852856 0.183752 0.000000
0.858599 0.183752 0.000000
0.865159 0.183752 0.000000
0.871890 0.183752 0.000000
0.880184 0.183752 0.000000
0.892381 0.183752 0.000000
0.916897 0.183752 0.000000
0.954380 0.183752 0.000000
1.000000 0.183752 0.000000
0.000000 0.253678 0.000000
0.097990 0.253678 0.000000
0.183752 0.253678 0.000000
0.253678 0.253678 0.000000
0.309113 0.253678 0.000000
0.356051 0.253678 0.000000
0.393176 0.253678 0.000000
0.419756 0.253678 0.000000
0.439669 0.253678 0.000000
0.458293 0.253678 0.000000
0.480586 0.253678 0.000000
0.506121 0.253678 0.000000
0.530202 0.253678 0.000000
0.548523 0.253678 0.000000
0.562729 0.253678 0.000000
0.575170 0.253678 0.000000
0.587398 0.253678 0.000000
0.599077 0.253678 0.000000
0.610403 0.253678 0.000000
0.622267 0.253678 0.000000
0.635457 0.253678 0.000000
0.649018 0.253678 0.000000
0.661373 0.253678 0.000000
0.672150 0.253678 0.000000
0.682052 0.253678 0.000000
0.690812 0.253678 0.000000
0.698137 0.253678 0.000000
0.704412 0.253678 0.000000
0.710681 0.253678 0.000000
0.717954 0.253678 0.000000
0.726075 0.253678 0.000000
0.733747 0.253678 0.000000
0.739860 0.253678 0.000000
0.744969 0.253678 0.000000
0.749545 0.253678 0.000000
0.753859 0.253678 0.000000
0.757797 0.253678 0.000000
0.761560 0.253678 0.000000
0.765473 0.253678 0.000000
0.769517 0.253678 0.000000
0.773655 0.253678 0.000000
0.777965 0.253678 0.000000
0.782535 0.253678 0.000000
0.787290 0.253678 0.000000
0.792074 0.253678 0.000000
0.796730 0.253678 0.000000
0.801365 0.253678 0.000000
0.806264 0.253678 0.000000
0.811709 0.253678 0.000000
0.817650 0.253678 0.000000
0.823730 0.253678 0.000000
0.829675 0.253678 0.000000
0.835616 0.253678 0.000000
0.841544 0.253678 0.000000
0.847358 0.253678 0.000000
0.852856 0.253678 0.000000
0.858599 0.253678 0.000000
0.865159 0.253678 0.000000
0.871890 0.253678 0.000000
0.880184 0.253678 0.000000
0.892381 0.253678 0.000000
0.916897 0.253678 0.000000
0.954380 0.253678 0.000000
1.000000 0.253678 0.000000
0.000000 0.309113 0.000000
0.097990 0.309113 0.000000
0.183752 0.309113 0.000000
0.253678 0.309113 0.000000
0.309113 0.309113 0.000000
0.356051 0.309113 0.000000
0.393176 0.309113 0.000000
0.419756 0.309113 0.000000
0.439669 0.309113 0.000000
0.458293 0.309113 0.000000
0.480586 0.309113 0.000000
0.506121 0.309113 0.000000
0.530202 0.309113 0.000000
0.548523 0.309113 0.000000
0.562729 0.309113 0.000000
0.575170 0.309113 0.000000
0.587398 0.309113 0.000000
0.599077 0.309113 0.000000
0.610403 0.309113 0.000000
0.622267 0.309113 0.000000
0.635457 0.309113 0.000000
0.649018 0.309113 0.000000
0.661373 0.309113 0.000000
0.672150 0.309113 0.000000
0.682052 0.309113 0.000000
0.690812 0.309113 0.000000
0.698137 0.309113 0.000000
0.704412 0.309113 0.000000
0.710681 0.309113 0.000000
0.717954 0.309113 0.000000
0.726075 0.309113 0.000000
0.733747 0.309113 0.000000
0.739860 0.309113 0.000000
0.744969 0.309113 0.000000
0.749545 0.309113 0.000000
0.753859 0.309113 0.000000
0.757797 0.309113 0.000000
0.761560 0.309113 0.000000
0.765473 0.309113 0.000000
0.769517 0.309113 0.000000
0.773655 0.309113 0.000000
0.777965 0.309113 0.000000
0.782535 0.309113 0.000000
0.787290 0.309113 0.000000
0.792074 0.309113 0.000000
0.796730 0.309113 0.000000
0.801365 0.309113 0.000000
0.806264 0.309113 0.000000
0.811709 0.309113 0.000000
0.817650 0.309113 0.000000
0.823730 0.309113 0.000000
0.829675 0.309113 0.000000
0.835616 0.309113 0.000000
0.841544 0.309113 0.000000
0.847358 0.309113 0.000000
0.852856 0.309113 0.000000
0.858599 0.309113 0.000000
0.865159 0.309113 0.000000
0.871890 0.309113 0.000000
0.880184 0.309113 0.000000
0.892381 0.309113 0.000000
0.916897 0.309113 0.000000
0.954380 0.309113 0.000000
1.000000 0.309113 0.000000
0.000000 0.356051 0.000000
0.097990 0.356051 0.000000
0.183752 0.356051 0.000000
0.253678 0.356051 0.000000
0.309113 0.356051 0.000000
0.356051 0.356051 0.000000
0.393176 0.356051 0.000000
0.419756 0.356051 0.000000
0.439669 0.356051 0.000000
0.458293 0.356051 0.000000
0.480586 0.356051 0.000000
0.506121 0.356051 0.000000
0.530202 0.356051 0.000000
0.548523 0.356051 0.000000
0.562729 0.356051 0.000000
0.575170 0.356051 0.000000
0.587398 0.356051 0.000000
0.599077 0.356051 0.000000
0.610403 0.356051 0.000000
0.622267 0.356051 0.000000
0.635457 0.356051 0.000000
0.649018 0.356051 0.000000
0.661373 0.356051 0.000000
0.672150 0.356051 0.000000
0.682052 0.356051 0.000000
0.690812 0.356051 0.000000
0.698137 0.356051 0.000000
0.704412 0.356051 0.000000
0.710681 0.356051 0.000000
0.717954 0.356051 0.000000
0.726075 0.356051 0.000000
0.733747 0.356051 0.000000
0.739860 0.356051 0.000000
0.744969 0.356051 0.000000
0.749545 0.356051 0.000000
0.753859 0.356051 0.000000
0.757797 0.356051 0.000000
0.761560 0.356051 0.000000
0.765473 0.356051 0.000000
0.769517 0.356051 0.000000
0.773655 0.356051 0.000000
0.777965 0.356051 0.000000
0.782535 0.356051 0.000000
0.787290 0.356051 0.000000
0.792074 0.356051 0.000000
0.796730 0.356051 0.000000
0.801365 0.356051 0.000000
0.806264 0.356051 0.000000
0.811709 0.356051 0.000000
0.817650 0.356051 0.000000
0.823730 0.356051 0.000000
0.829675 0.356051 0.000000
0.835616 0.356051 0.000000
0.841544 0.356051 0.000000
0.847358 0.356051 0.000000
0.852856 0.356051 0.000000
0.858599 0.356051 0.000000
0.865159 0.356051 0.000000
0.871890 0.356051 0.000000
0.880184 0.356051 0.000000
0.892381 0.356051 0.000000
0.916897 0.356051 0.000000
0.954380 0.356051 0.000000
1.000000 0.356051 0.000000
0.000000 0.393176 0.000000
0.097990 0.393176 0.000000
0.183752 0.393176 0.000000
0.253678 0.393176 0.000000
0.309113 0.393176 0.000000
0.356051 0.393176 0.000000
0.393176 0.393176 0.000000
0.419756 0.393176 0.000000
0.439669 0.393176 0.000000
0.458293 0.393176 0.000000
0.480586 0.393176 0.000000
0.506121 0.393176 0.000000
0.530202 0.393176 0.000000
0.548523 0.393176 0.000000
0.562729 0.393176 0.000000
0.575170 0.393176 0.000000
0.587398 0.393176 0.000000
0.599077 0.393176 0.000000
0.610403 0.393176 0.000000
0.622267 0.393176 0.000000
0.635457 0.393176 0.000000
0.649018 0.393176 0.000000
0.661373 0.393176 0.000000
0.672150 0.393176 0.000000
0.682052 0.393176 0.000000
0.690812 0.393176 0.000000
0.698137 0.393176 0.000000
0.704412 0.393176 0.000000
0.710681 0.393176 0.000000
0.717954 0.393176 0.000000
0.726075 0.393176 0.000000
0.733747 0.393176 0.000000
0.739860 0.393176 0.000000
0.744969 0.393176 0.000000
0.749545 0.393176 0.000000
0.753859 0.393176 0.000000
0.757797 0.393176 0.000000
0.761560 0.393176 0.000000
0.765473 0.393176 0.000000
0.769517 0.393176 0.000000
0.773655 0.393176 0.000000
0.777965 0.393176 0.000000
0.782535 0.393176 0.000000
0.787290 0.393176 0.000000
0.792074 0.393176 0.000000
0.796730 0.393176 0.000000
0.801365 0.393176 0.000000
0.806264 0.393176 0.000000
0.811709 0.393176 0.000000
0.817650 0.393176 0.000000
0.823730 0.393176 0.000000
0.829675 0.393176 0.000000
0.835616 0.393176 0.000000
0.841544 0.393176 0.000000
0.847358 0.393176 0.000000
0.852856 0.393176 0.000000
0.858599 0.393176 0.000000
0.865159 0.393176 0.000000
0.871890 0.393176 0.000000
0.880184 0.393176 0.000000
0.892381 0.393176 0.000000
0.916897 0.393176 0.000000
0.954380 0.393176 0.000000
1.000000 0.393176 0.000000
0.000000 0.419756 0.000000
0.097990 0.419756 0.000000
0.183752 0.419756 0.000000
0.253678 0.419756 0.000000
0.309113 0.419756 0.000000
0.356051 0.419756 0.000000
0.393176 0.419756 0.000000
0.419756 0.419756 0.000000
0.439669 0.419756 0.000000
0.458293 0.419756 0.000000
0.480586 0.419756 0.000000
0.506121 0.419756 0.000000
0.530202 0.419756 0.000000
0.548523 0.419756 0.000000
0.562729 0.419756 0.000000
0.575170 0.419756 0.000000
0.587398 0.419756 0.000000
0.599077 0.419756 0.000000
0.610403 0.419756 0.000000
0.622267 0.419756 0.000000
0.635457 0.419756 0.000000
0.649018 0.419756 0.000000
0.661373 0.419756 0.000000
0.672150 0.419756 0.000000
0.682052 0.419756 0.000000
0.690812 0.419756 0.000000
0.698137 0.419756 0.000000
0.704412 0.419756 0.000000
0.710681 0.419756 0.000000
0.717954 0.419756 0.000000
0.726075 0.419756 0.000000
0.733747 0.419756 0.000000
0.739860 0.419756 0.000000
0.744969 0.419756 0.000000
0.749545 0.419756 0.000000
0.753859 0.419756 0.000000
0.757797 0.419756 0.000000
0.761560 0.419756 0.000000
0.765473 0.419756 0.000000
0.769517 0.419756 0.000000
0.773655 0.419756 0.000000
0.777965 0.419756 0.000000
0.782535 0.419756 0.000000
0.787290 0.419756 0.000000
0.792074 0.419756 0.000000
0.796730 0.419756 0.000000
0.801365 0.419756 0.000000
0.806264 0.419756 0.000000
0.811709 0.419756 0.000000
0.817650 0.419756 0.000000
0.823730 0.419756 0.000000
0.829675 0.419756 0.000000
0.835616 0.419756 0.000000
0.841544 0.419756 0.000000
0.847358 0.419756 0.000000
0.852856 0.419756 0.000000
0.858599 0.419756 0.000000
0.865159 0.419756 0.000000
0.871890 0.419756 0.000000
0.880184 0.419756 0.000000
0.892381 0.419756 0.000000
0.916897 0.419756 0.000000
0.954380 0.419756 0.000000
1.000000 0.419756 0.000000
0.000000 0.439669 0.000000
0.097990 0.439669 0.000000
0.183752 0.439669 0.000000
0.253678 0.439669 0.000000
0.309113 0.439669 0.000000
0.356051 0.439669 0.000000
0.393176 0.439669 0.000000
0.419756 0.439669 0.000000
0.439669 0.439669 0.000000
0.458293 0.439669 0.000000
0.480586 0.439669 0.000000
0.506121 0.439669 0.000000
0.530202 0.439669 0.000000
0.548523 0.439669 0.000000
0.562729 0.439669 0.000000
0.575170 0.439669 0.000000
0.587398 0.439669 0.000000
0.599077 0.439669 0.000000
0.610403 0.439669 0.000000
0.622267 0.439669 0.000000
0.635457 0.439669 0.000000
0.649018 0.439669 0.000000
0.661373 0.439669 0.000000
0.672150 0.439669 0.000000
0.682052 0.439669 0.000000
0.690812 0.439669 0.000000
0.698137 0.439669 0.000000
0.704412 0.439669 0.000000
0.710681 0.439669 0.000000
0.717954 0.439669 0.000000
0.726075 0.439669 0.000000
0.733747 0.439669 0.000000
0.739860 0.439669 0.000000
0.744969 0.439669 0.000000
0.749545 0.439669 0.000000
0.753859 0.439669 0.000000
0.757797 0.439669 0.000000
0.761560 0.439669 0.000000
0.765473 0.439669 0.000000
0.769517 0.439669 0.000000
0.773655 0.439669 0.000000
0.777965 0.439669 0.000000
0.782535 0.439669 0.000000
0.787290 0.439669 0.000000
0.792074 0.439669 0.000000
0.796730 0.439669 0.000000
0.801365 0.439669 0.000000
0.806264 0.439669 0.000000
0.811709 0.439669 0.000000
0.817650 0.439669 0.000000
0.823730 0.439669 0.000000
0.829675 0.439669 0.000000
0.835616 0.439669 0.000000
0.841544 0.439669 0.000000
0.847358 0.439669 0.000000
0.852856 0.439669 0.000000
0.858599 0.439669 0.000000
0.865159 0.439669 0.000000
0.871890 0.439669 0.000000
0.880184 0.439669 0.000000
0.892381 0.439669 0.000000
0.916897 0.439669 0.000000
0.954380 0.439669 0.000000
1.000000 0.439669 0.000000
0.000000 0.458293 0.000000
0.097990 0.458293 0.000000
0.183752 0.458293 0.000000
0.253678 0.458293 0.000000
0.309113 0.458293 0.000000
0.356051 0.458293 0.000000
0.393176 0.458293 0.000000
0.419756 0.458293 0.000000
0.439669 0.458293 0.000000
0.458293 0.458293 0.000000
0.480586 0.458293 0.000000
0.506121 0.458293 0.000000
0.530202 0.458293 0.000000
0.548523 0.458293 0.000000
0.562729 0.458293 0.000000
0.575170 0.458293 0.000000
0.587398 0.458293 0.000000
0.599077 0.458293 0.000000
0.610403 0.458293 0.000000
0.622267 0.458293 0.000000
0.635457 0.458293 0.000000
0.649018 0.458293 0.000000
0.661373 0.458293 0.000000
0.672150 0.458293 0.000000
0.682052 0.458293 0.000000
0.690812 0.458293 0.000000
0.698137 0.458293 0.000000
0.704412 0.458293 0.000000
0.710681 0.458293 0.000000
0.717954 0.458293 0.000000
0.726075 0.458293 0.000000
0.733747 0.458293 0.000000
0.739860 0.458293 0.000000
0.744969 0.458293 0.000000
0.749545 0.458293 0.000000
0.753859 0.458293 0.000000
0.757797 0.458293 0.000000
0.761560 0.458293 0.000000
0.765473 0.458293 0.000000
0.769517 0.458293 0.000000
0.773655 0.458293 0.000000
0.777965 0.458293 0.000000
0.782535 0.458293 0.000000
0.787290 0.458293 0.000000
0.792074 0.458293 0.000000
0.796730 0.458293 0.000000
0.801365 0.458293 0.000000
0.806264 0.458293 0.000000
0.811709 0.458293 0.000000
0.817650 0.458293 0.000000
0.823730 0.458293 0.000000
0.829675 0.458293 0.000000
0.835616 0.458293 0.000000
0.841544 0.458293 0.000000
0.847358 0.458293 0.000000
0.852856 0.458293 0.000000
0.858599 0.458293 0.000000
0.865159 0.458293 0.000000
0.871890 0.458293 0.000000
0.880184 0.458293 0.000000
0.892381 0.458293 0.000000
0.916897 0.458293 0.000000
0.954380 0.458293 0.000000
1.000000 0.458293 0.000000
0.000000 0.480586 0.000000
0.097990 0.480586 0.000000
0.183752 0.480586 0.000000
0.253678 0.480586 0.000000
0.309113 0.480586 0.000000
0.356051 0.480586 0.000000
0.393176 0.480586 0.000000
0.419756 0.480586 0.000000
0.439669 0.480586 0.000000
0.458293 0.480586 0.000000
0.480586 0.480586 0.000000
0.506121 0.480586 0.000000
0.530202 0.480586 0.000000
0.548523 0.480586 0.000000
0.562729 0.480586 0.000000
0.575170 0.480586 0.000000
0.587398 0.480586 0.000000
0.599077 0.480586 0.000000
0.610403 0.480586 0.000000
0.622267 0.480586 0.000000
0.635457 0.480586 0.000000
0.649018 0.480586 0.000000
0.661373 0.480586 0.000000
0.672150 0.480586 0.000000
0.682052 0.480586 0.000000
0.690812 0.480586 0.000000
0.698137 0.480586 0.000000
0.704412 0.480586 0.000000
0.710681 0.480586 0.000000
0.717954 0.480586 0.000000
0.726075 0.480586 0.000000
0.733747 0.480586 0.000000
0.739860 0.480586 0.000000
0.744969 0.480586 0.000000
0.749545 0.480586 0.000000
0.753859 0.480586 0.000000
0.757797 0.480586 0.000000
0.761560 0.480586 0.000000
0.765473 0.480586 0.000000
0.769517 0.480586 0.000000
0.773655 0.480586 0.000000
0.777965 0.480586 0.000000
0.782535 0.480586 0.000000
0.787290 0.480586 0.000000
0.792074 0.480586 0.000000
0.796730 0.480586 0.000000
0.801365 0.480586 0.000000
0.806264 0.480586 0.000000
0.811709 0.480586 0.000000
0.817650 0.480586 0.000000
0.823730 0.480586 0.000000
0.829675 0.480586 0.000000
0.835616 0.480586 0.000000
0.841544 0.480586 0.000000
0.847358 0.480586 0.000000
0.852856 0.480586 0.000000
0.858599 0.480586 0.000000
0.865159 0.480586 0.000000
0.871890 0.480586 0.000000
0.880184 0.480586 0.000000
0.892381 0.480586 0.000000
0.916897 0.480586 0.000000
0.954380 0.480586 0.000000
1.000000 0.480586 0.000000
0.000000 0.506121 0.000000
0.097990 0.506121 0.000000
0.183752 0.506121 0.000000
0.253678 0.506121 0.000000
0.309113 0.506121 0.000000
0.356051 0.506121 0.000000
0.393176 0.506121 0.000000
0.419756 0.506121 0.000000
0.439669 0.506121 0.000000
0.458293 0.506121 0.000000
0.480586 0.506121 0.000000
0.506121 0.506121 0.000000
0.530202 0.506121 0.000000
0.548523 0.506121 0.000000
0.562729 0.506121 0.000000
0.575170 0.506121 0.000000
0.587398 0.506121 0.000000
0.599077 0.506121 0.000000
0.610403 0.506121 0.000000
0.622267 0.506121 0.000000
0.635457 0.506121 0.000000
0.649018 0.506121 0.000000
0.661373 0.506121 0.000000
0.672150 0.506121 0.000000
0.682052 0.506121 0.000000
0.690812 0.506121 0.000000
0.698137 0.506121 0.000000
0.704412 0.506121 0.000000
0.710681 0.506121 0.000000
0.717954 0.506121 0.000000
0.726075 0.506121 0.000000
0.733747 0.506121 0.000000
0.739860 0.506121 0.000000
0.744969 0.506121 0.000000
0.749545 0.506121 0.000000
0.753859 0.506121 0.000000
0.757797 0.506121 0.000000
0.761560 0.506121 0.000000
0.765473 0.506121 0.000000
0.769517 0.506121 0.000000
0.773655 0.506121 0.000000
0.777965 0.506121 0.000000
0.782535 0.506121 0.000000
0.787290 0.506121 0.000000
0.792074 0.506121 0.000000
0.796730 0.506121 0.000000
0.801365 0.506121 0.000000
0.806264 0.506121 0.000000
0.811709 0.506121 0.000000
0.817650 0.506121 0.000000
0.823730 0.506121 0.000000
0.829675 0.506121 0.000000
0.835616 0.506121 0.000000
0.841544 0.506121 0.000000
0.847358 0.506121 0.000000
0.852856 0.506121 0.000000
0.858599 0.506121 0.000000
0.865159 0.506121 0.000000
0.871890 0.506121 0.000000
0.880184 0.506121 0.000000
0.892381 0.506121 0.000000
0.916897 0.506121 0.000000
0.954380 0.506121 0.000000
1.000000 0.506121 0.000000
0.000000 0.530202 0.000000
0.097990 0.530202 0.000000
0.183752 0.530202 0.000000
0.253678 0.530202 0.000000
0.309113 0.530202 0.000000
0.356051 0.530202 0.000000
0.393176 0.530202 0.000000
0.419756 0.530202 0.000000
0.439669 0.530202 0.000000
0.458293 0.530202 0.000000
0.480586 0.530202 0.000000
0.506121 0.530202 0.000000
0.530202 0.530202 0.000000
0.548523 0.530202 0.000000
0.562729 0.530202 0.000000
0.575170 0.530202 0.000000
0.587398 0.530202 0.000000
0.599077 0.530202 0.000000
0.610403 0.530202 0.000000
0.622267 0.530202 0.000000
0.635457 0.530202 0.000000
0.649018 0.530202 0.000000
0.661373 0.530202 0.000000
0.672150 0.530202 0.000000
0.682052 0.530202 0.000000
0.690812 0.530202 0.000000
0.698137 0.530202 0.000000
0.704412 0.530202 0.000000
0.710681 0.530202 0.000000
0.717954 0.530202 0.000000
0.726075 0.530202 0.000000
0.733747 0.530202 0.000000
0.739860 0.530202 0.000000
0.744969 0.530202 0.000000
0.749545 0.530202 0.000000
0.753859 0.530202 0.000000
0.757797 0.530202 0.000000
0.761560 0.530202 0.000000
0.765473 0.530202 0.000000
0.769517 0.530202 0.000000
0.773655 0.530202 0.000000
0.777965 0.530202 0.000000
0.782535 0.530202 0.000000
0.787290 0.530202 0.000000
0.792074 0.530202 0.000000
0.796730 0.530202 0.000000
0.801365 0.530202 0.000000
0.806264 0.530202 0.000000
0.811709 0.530202 0.000000
0.817650 0.530202 0.000000
0.823730 0.530202 0.000000
0.829675 0.530202 0.000000
0.835616 0.530202 0.000000
0.841544 0.530202 0.000000
0.847358 0.530202 0.000000
0.852856 0.530202 0.000000
0.858599 0.530202 0.000000
0.865159 0.530202 0.000000
0.871890 0.530202 0.000000
0.880184 0.530202 0.000000
0.892381 0.530202 0.000000
0.916897 0.530202 0.000000
0.954380 0.530202 0.000000
1.000000 0.530202 0.000000
0.000000 0.548523 0.000000
0.097990 0.548523 0.000000
0.183752 0.548523 0.000000
0.253678 0.548523 0.000000
0.309113 0.548523 0.000000
0.356051 0.548523 0.000000
0.393176 0.548523 0.000000
0.419756 0.548523 0.000000
0.439669 0.548523 0.000000
0.458293 0.548523 0.000000
0.480586 0.548523 0.000000
0.506121 0.548523 0.000000
0.530202 0.548523 0.000000
0.548523 0.548523 0.000000
0.562729 0.548523 0.000000
0.575170 0.548523 0.000000
0.587398 0.548523 0.000000
0.599077 0.548523 0.000000
0.610403 0.548523 0.000000
0.622267 0.548523 0.000000
0.635457 0.548523 0.000000
0.649018 0.548523 0.000000
0.661373 0.548523 0.000000
0.672150 0.548523 0.000000
0.682052 0.548523 0.000000
0.690812 0.548523 0.000000
0.698137 0.548523 0.000000
0.704412 0.548523 0.000000
0.710681 0.548523 0.000000
0.717954 0.548523 0.000000
0.726075 0.548523 0.000000
0.733747 0.548523 0.000000
0.739860 0.548523 0.000000
0.744969 0.548523 0.000000
0.749545 0.548523 0.000000
0.753859 0.548523 0.000000
0.757797 0.548523 0.000000
0.761560 0.548523 0.000000
0.765473 0.548523 0.000000
0.769517 0.548523 0.000000
0.773655 0.548523 0.000000
0.777965 0.548523 0.000000
0.782535 0.548523 0.000000
0.787290 0.548523 0.000000
0.792074 0.548523 0.000000
0.796730 0.548523 0.000000
0.801365 0.548523 0.000000
0.806264 0.548523 0.000000
0.811709 0.548523 0.000000
0.817650 0.548523 0.000000
0.823730 0.548523 0.000000
0.829675 0.548523 0.000000
0.835616 0.548523 0.000000
0.841544 0.548523 0.000000
