profiles/CassArt 300 Sm.cube
TITLE "cyanoneg"
LUT_3D_SIZE 8
DOMAIN_MIN 0.0 0.0 0.0
DOMAIN_MAX 1.0 1.0 1.0
0.000000 0.000000 0.000000
0.458293 0.000000 0.000000
0.610403 0.000000 0.000000
0.704412 0.000000 0.000000
0.757797 0.000000 0.000000
0.796730 0.000000 0.000000
0.847358 0.000000 0.000000
1.000000 0.000000 0.000000
0.000000 0.458293 0.000000
0.458293 0.458293 0.000000
0.610403 0.458293 0.000000
0.704412 0.458293 0.000000
0.757797 0.458293 0.000000
0.796730 0.458293 0.000000
0.847358 0.458293 0.000000
1.000000 0.458293 0.000000
0.000000 0.610403 0.000000
0.458293 0.610403 0.000000
0.610403 0.610403 0.000000
0.704412 0.610403 0.000000
0.757797 0.610403 0.000000
0.796730 0.610403 0.000000
0.847358 0.610403 0.000000
1.000000 0.610403 0.000000
0.000000 0.704412 0.000000
0.458293 0.704412 0.000000
0.610403 0.704412 0.000000
0.704412 0.704412 0.000000
0.757797 0.704412 0.000000
0.796730 0.704412 0.000000
0.847358 0.704412 0.000000
1.000000 0.704412 0.000000
0.000000 0.757797 0.000000
0.458293 0.757797 0.000000
0.610403 0.757797 0.000000
0.704412 0.757797 0.000000
0.757797 0.757797 0.000000
0.796730 0.757797 0.000000
0.847358 0.757797 0.000000
1.000000 0.757797 0.000000
0.000000 0.796730 0.000000
0.458293 0.796730 0.000000
0.610403 0.796730 0.000000
0.704412 0.796730 0.000000
0.757797 0.796730 0.000000
0.796730 0.796730 0.000000
0.847358 0.796730 0.000000
1.000000 0.796730 0.000000
0.000000 0.847358 0.000000
0.458293 0.847358 0.000000
0.610403 0.847358 0.000000
0.704412 0.847358 0.000000
0.757797 0.847358 0.000000
0.796730 0.847358 0.000000
0.847358 0.847358 0.000000
1.000000 0.847358 0.000000
0.000000 1.000000 0.000000
0.458293 1.000000 0.000000
0.610403 1.000000 0.000000
0.704412 1.000000 0.000000
0.757797 1.000000 0.000000
0.796730 1.000000 0.000000
0.847358 1.000000 0.000000
1.000000 1.000000 0.000000
0.000000 0.000000 0.458293
0.458293 0.000000 0.458293
0.610403 0.000000 0.458293
0.704412 0.000000 0.458293
0.757797 0.000000 0.458293
0.796730 0.000000 0.458293
0.847358 0.000000 0.458293
1.000000 0.000000 0.458293
0.000000 0.458293 0.458293
0.458293 0.458293 0.458293
0.610403 0.458293 0.458293
0.704412 0.458293 0.458293
0.757797 0.458293 0.458293
0.796730 0.458293 0.458293
0.847358 0.458293 0.458293
1.000000 0.458293 0.458293
0.000000 0.610403 0.458293
0.458293 0.610403 0.458293
0.610403 0.610403 0.458293
0.704412 0.610403 0.458293
0.757797 0.610403 0.458293
0.796730 0.610403 0.458293
0.847358 0.610403 0.458293
1.000000 0.610403 0.458293
0.000000 0.704412 0.458293
0.458293 0.704412 0.458293
0.610403 0.704412 0.458293
0.704412 0.704412 0.458293
0.757797 0.704412 0.458293
0.796730 0.704412 0.458293
0.847358 0.704412 0.458293
1.000000 0.704412 0.458293
0.000000 0.757797 0.458293
0.458293 0.757797 0.458293
0.610403 0.757797 0.458293
0.704412 0.757797 0.458293
0.757797 0.757797 0.458293
0.796730 0.757797 0.458293
0.847358 0.757797 0.458293
1.000000 0.757797 0.458293
0.000000 0.796730 0.458293
0.458293 0.796730 0.458293
0.610403 0.796730 0.458293
0.704412 0.796730 0.458293
0.757797 0.796730 0.458293
0.796730 0.796730 0.458293
0.847358 0.796730 0.458293
1.000000 0.796730 0.458293
0.000000 0.847358 0.458293
0.458293 0.847358 0.458293
0.610403 0.847358 0.458293
0.704412 0.847358 0.458293
0.757797 0.847358 0.458293
0.796730 0.847358 0.458293
0.847358 0.847358 0.458293
1.000000 0.847358 0.458293
0.000000 1.000000 0.458293
0.458293 1.000000 0.458293
0.610403 1.000000 0.458293
0.704412 1.000000 0.458293
0.757797 1.000000 0.458293
0.796730 1.000000 0.458293
0.847358 1.000000 0.458293
1.000000 1.000000 0.458293
0.000000 0.000000 0.610403
0.458293 0.000000 0.610403
0.610403 0.000000 0.610403
0.704412 0.000000 0.610403
0.757797 0.000000 0.610403
0.796730 0.000000 0.610403
0.847358 0.000000 0.610403
1.000000 0.000000 0.610403
0.000000 0.458293 0.610403
0.458293 0.458293 0.610403
0.610403 0.458293 0.610403
0.704412 0.458293 0.610403
0.757797 0.458293 0.610403
0.796730 0.458293 0.610403
0.847358 0.458293 0.610403
1.000000 0.458293 0.610403
0.000000 0.610403 0.610403
0.458293 0.610403 0.610403
0.610403 0.610403 0.610403
0.704412 0.610403 0.610403
0.757797 0.610403 0.610403
0.796730 0.610403 0.610403
0.847358 0.610403 0.610403
1.000000 0.610403 0.610403
0.000000 0.704412 0.610403
0.458293 0.704412 0.610403
0.610403 0.704412 0.610403
0.704412 0.704412 0.610403
0.757797 0.704412 0.610403
0.796730 0.704412 0.610403
0.847358 0.704412 0.610403
1.000000 0.704412 0.610403
0.000000 0.757797 0.610403
0.458293 0.757797 0.610403
0.610403 0.757797 0.610403
0.704412 0.757797 0.610403
0.757797 0.757797 0.610403
0.796730 0.757797 0.610403
0.847358 0.757797 0.610403
1.000000 0.757797 0.610403
0.000000 0.796730 0.610403
0.458293 0.796730 0.610403
0.610403 0.796730 0.610403
0.704412 0.796730 0.610403
0.757797 0.796730 0.610403
0.796730 0.796730 0.610403
0.847358 0.796730 0.610403
1.000000 0.796730 0.610403
0.000000 0.847358 0.610403
0.458293 0.847358 0.610403
0.610403 0.847358 0.610403
0.704412 0.847358 0.610403
0.757797 0.847358 0.610403
0.796730 0.847358 0.610403
0.847358 0.847358 0.610403
1.000000 0.847358 0.610403
0.000000 1.000000 0.610403
0.458293 1.000000 0.610403
0.610403 1.000000 0.610403
0.704412 1.000000 0.610403
0.757797 1.000000 0.610403
0.796730 1.000000 0.610403
0.847358 1.000000 0.610403
1.000000 1.000000 0.610403
0.000000 0.000000 0.704412
0.458293 0.000000 0.704412
0.610403 0.000000 0.704412
0.704412 0.000000 0.704412
0.757797 0.000000 0.704412
0.796730 0.000000 0.704412
0.847358 0.000000 0.704412
1.000000 0.000000 0.704412
0.000000 0.458293 0.704412
0.458293 0.458293 0.704412
0.610403 0.458293 0.704412
0.704412 0.458293 0.704412
0.757797 0.458293 0.704412
0.796730 0.458293 0.704412
0.847358 0.458293 0.704412
1.000000 0.458293 0.704412
0.000000 0.610403 0.704412
0.458293 0.610403 0.704412
0.610403 0.610403 0.704412
0.704412 0.610403 0.704412
0.757797 0.610403 0.704412
0.796730 0.610403 0.704412
0.847358 0.610403 0.704412
1.000000 0.610403 0.704412
0.000000 0.704412 0.704412
0.458293 0.704412 0.704412
0.610403 0.704412 0.704412
0.704412 0.704412 0.704412
0.757797 0.704412 0.704412
0.796730 0.704412 0.704412
0.847358 0.704412 0.704412
1.000000 0.704412 0.704412
0.000000 0.757797 0.704412
0.458293 0.757797 0.704412
0.610403 0.757797 0.704412
0.704412 0.757797 0.704412
0.757797 0.757797 0.704412
0.796730 0.757797 0.704412
0.847358 0.757797 0.704412
1.000000 0.757797 0.704412
0.000000 0.796730 0.704412
0.458293 0.796730 0.704412
0.610403 0.796730 0.704412
0.704412 0.796730 0.704412
0.757797 0.796730 0.704412
0.796730 0.796730 0.704412
0.847358 0.796730 0.704412
1.000000 0.796730 0.704412
0.000000 0.847358 0.704412
0.458293 0.847358 0.704412
0.610403 0.847358 0.704412
0.704412 0.847358 0.704412
0.757797 0.847358 0.704412
0.796730 0.847358 0.704412
0.847358 0.847358 0.704412
1.000000 0.847358 0.704412
0.000000 1.000000 0.704412
0.458293 1.000000 0.704412
0.610403 1.000000 0.704412
0.704412 1.000000 0.704412
0.757797 1.000000 0.704412
0.796730 1.000000 0.704412
0.847358 1.000000 0.704412
1.000000 1.000000 0.704412
0.000000 0.000000 0.757797
0.458293 0.000000 0.757797
0.610403 0.000000 0.757797
0.704412 0.000000 0.757797
0.757797 0.000000 0.757797
0.796730 0.000000 0.757797
0.847358 0.000000 0.757797
1.000000 0.000000 0.757797
0.000000 0.458293 0.757797
0.458293 0.458293 0.757797
0.610403 0.458293 0.757797
0.704412 0.458293 0.757797
0.757797 0.458293 0.757797
0.796730 0.458293 0.757797
0.847358 0.458293 0.757797
1.000000 0.458293 0.757797
0.000000 0.610403 0.757797
0.458293 0.610403 0.757797
0.610403 0.610403 0.757797
0.704412 0.610403 0.757797
0.757797 0.610403 0.757797
0.796730 0.610403 0.757797
0.847358 0.610403 0.757797
1.000000 0.610403 0.757797
0.000000 0.704412 0.757797
0.458293 0.704412 0.757797
0.610403 0.704412 0.757797
0.704412 0.704412 0.757797
0.757797 0.704412 0.757797
0.796730 0.704412 0.757797
0.847358 0.704412 0.757797
1.000000 0.704412 0.757797
0.000000 0.757797 0.757797
0.458293 0.757797 0.757797
0.610403 0.757797 0.757797
0.704412 0.757797 0.757797
0.757797 0.757797 0.757797
0.796730 0.757797 0.757797
0.847358 0.757797 0.757797
1.000000 0.757797 0.757797
0.000000 0.796730 0.757797
0.458293 0.796730 0.757797
0.610403 0.796730 0.757797
0.704412 0.796730 0.757797
0.757797 0.796730 0.757797
0.796730 0.796730 0.757797
0.847358 0.796730 0.757797
1.000000 0.796730 0.757797
0.000000 0.847358 0.757797
0.458293 0.847358 0.757797
0.610403 0.847358 0.757797
0.704412 0.847358 0.757797
0.757797 0.847358 0.757797
0.796730 0.847358 0.757797
0.847358 0.847358 0.757797
1.000000 0.847358 0.757797
0.000000 1.000000 0.757797
0.458293 1.000000 0.757797
0.610403 1.000000 0.757797
0.704412 1.000000 0.757797
0.757797 1.000000 0.757797
0.796730 1.000000 0.757797
0.847358 1.000000 0.757797
1.000000 1.000000 0.757797
0.000000 0.000000 0.796730
0.458293 0.000000 0.796730
0.610403 0.000000 0.796730
0.704412 0.000000 0.796730
0.757797 0.000000 0.796730
0.796730 0.000000 0.796730
0.847358 0.000000 0.796730
1.000000 0.000000 0.796730
0.000000 0.458293 0.796730
0.458293 0.458293 0.796730
0.610403 0.458293 0.796730
0.704412 0.458293 0.796730
0.757797 0.458293 0.796730
0.796730 0.458293 0.796730
0.847358 0.458293 0.796730
1.000000 0.458293 0.796730
0.000000 0.610403 0.796730
0.458293 0.610403 0.796730
0.610403 0.610403 0.796730
0.704412 0.610403 0.796730
0.757797 0.610403 0.796730
0.796730 0.610403 0.796730
0.847358 0.610403 0.796730
1.000000 0.610403 0.796730
0.000000 0.704412 0.796730
0.458293 0.704412 0.796730
0.610403 0.704412 0.796730
0.704412 0.704412 0.796730
0.757797 0.704412 0.796730
0.796730 0.704412 0.796730
0.847358 0.704412 0.796730
1.000000 0.704412 0.796730
0.000000 0.757797 0.796730
0.458293 0.757797 0.796730
0.610403 0.757797 0.796730
0.704412 0.757797 0.796730
0.757797 0.757797 0.796730
0.796730 0.757797 0.796730
0.847358 0.757797 0.796730
1.000000 0.757797 0.796730
0.000000 0.796730 0.796730
0.458293 0.796730 0.796730
0.610403 0.796730 0.796730
0.704412 0.796730 0.796730
0.757797 0.796730 0.796730
0.796730 0.796730 0.796730
0.847358 0.796730 0.796730
1.000000 0.796730 0.796730
0.000000 0.847358 0.796730
0.458293 0.847358 0.796730
0.610403 0.847358 0.796730
0.704412 0.847358 0.796730
0.757797 0.847358 0.796730
0.796730 0.847358 0.796730
0.847358 0.847358 0.796730
1.000000 0.847358 0.796730
0.000000 1.000000 0.796730
0.458293 1.000000 0.796730
0.610403 1.000000 0.796730
0.704412 1.000000 0.796730
0.757797 1.000000 0.796730
0.796730 1.000000 0.796730
0.847358 1.000000 0.796730
1.000000 1.000000 0.796730
0.000000 0.000000 0.847358
0.458293 0.000000 0.847358
0.610403 0.000000 0.847358
0.704412 0.000000 0.847358
0.757797 0.000000 0.847358
0.796730 0.000000 0.847358
0.847358 0.000000 0.847358
1.000000 0.000000 0.847358
0.000000 0.458293 0.847358
0.458293 0.458293 0.847358
0.610403 0.458293 0.847358
0.704412 0.458293 0.847358
0.757797 0.458293 0.847358
0.796730 0.458293 0.847358
0.847358 0.458293 0.847358
1.000000 0.458293 0.847358
0.000000 0.610403 0.847358
0.458293 0.610403 0.847358
0.610403 0.610403 0.847358
0.704412 0.610403 0.847358
0.757797 0.610403 0.847358
0.796730 0.610403 0.847358
0.847358 0.610403 0.847358
1.000000 0.610403 0.847358
0.000000 0.704412 0.847358
0.458293 0.704412 0.847358
0.610403 0.704412 0.847358
0.704412 0.704412 0.847358
0.757797 0.704412 0.847358
0.796730 0.704412 0.847358
0.847358 0.704412 0.847358
1.000000 0.704412 0.847358
0.000000 0.757797 0.847358
0.458293 0.757797 0.847358
0.610403 0.757797 0.847358
0.704412 0.757797 0.847358
0.757797 0.757797 0.847358
0.796730 0.757797 0.847358
0.847358 0.757797 0.847358
1.000000 0.757797 0.847358
0.000000 0.796730 0.847358
0.458293 0.796730 0.847358
0.610403 0.796730 0.847358
0.704412 0.796730 0.847358
0.757797 0.796730 0.847358
0.796730 0.796730 0.847358
0.847358 0.796730 0.847358
1.000000 0.796730 0.847358
0.000000 0.847358 0.847358
0.458293 0.847358 0.847358
0.610403 0.847358 0.847358
0.704412 0.847358 0.847358
0.757797 0.847358 0.847358
0.796730 0.847358 0.847358
0.847358 0.847358 0.847358
1.000000 0.847358 0.847358
0.000000 1.000000 0.847358
0.458293 1.000000 0.847358
0.610403 1.000000 0.847358
0.704412 1.000000 0.847358
0.757797 1.000000 0.847358
0.796730 1.000000 0.847358
0.847358 1.000000 0.847358
1.000000 1.000000 0.847358
0.000000 0.000000 1.000000
0.458293 0.000000 1.000000
0.610403 0.000000 1.000000
0.704412 0.000000 1.000000
0.757797 0.000000 1.000000
0.796730 0.000000 1.000000
0.847358 0.000000 1.000000
1.000000 0.000000 1.000000
0.000000 0.458293 1.000000
0.458293 0.458293 1.000000
0.610403 0.458293 1.000000
0.704412 0.458293 1.000000
0.757797 0.458293 1.000000
0.796730 0.458293 1.000000
0.847358 0.458293 1.000000
1.000000 0.458293 1.000000
0.000000 0.610403 1.000000
0.458293 0.610403 1.000000
0.610403 0.610403 1.000000
0.704412 0.610403 1.000000
0.757797 0.610403 1.000000
0.796730 0.610403 1.000000
0.847358 0.610403 1.000000
1.000000 0.610403 1.000000
0.000000 0.704412 1.000000
0.458293 0.704412 1.000000
0.610403 0.704412 1.000000
0.704412 0.704412 1.000000
0.757797 0.704412 1.000000
0.796730 0.704412 1.000000
0.847358 0.704412 1.000000
1.000000 0.704412 1.000000
0.000000 0.757797 1.000000
0.458293 0.757797 1.000000
0.610403 0.757797 1.000000
0.704412 0.757797 1.000000
0.757797 0.757797 1.000000
0.796730 0.757797 1.000000
0.847358 0.757797 1.000000
1.000000 0.757797 1.000000
0.000000 0.796730 1.000000
0.458293 0.796730 1.000000
0.610403 0.796730 1.000000
0.704412 0.796730 1.000000
0.757797 0.796730 1.000000
0.796730 0.796730 1.000000
0.847358 0.796730 1.000000
1.000000 0.796730 1.000000
0.000000 0.847358 1.000000
0.458293 0.847358 1.000000
0.610403 0.847358 1.000000
0.704412 0.847358 1.000000
0.757797 0.847358 1.000000
0.796730 0.847358 1.000000
0.847358 0.847358 1.000000
1.000000 0.847358 1.000000
0.000000 1.000000 1.000000
0.458293 1.000000 1.000000
0.610403 1.000000 1.000000
0.704412 1.000000 1.000000
0.757797 1.000000 1.000000
0.796730 1.000000 1.000000
0.847358 1.000000 1.000000
1.000000 1.000000 1.000000
